images/footer/twitter.svg

<svg width="40" height="40" viewBox="0 0 40 40" fill="none" xmlns="http://www.w3.org/2000/svg">
<circle cx="20" cy="20" r="20" fill="white" fill-opacity="0.3"/>
<path d="M22.7 13.1551C24.2 12.6551 25.3 13.4551 25.9 14.2551C26.4 14.0551 27 13.8551 27.6 13.6551C27.6 14.4551 27.1 15.0551 26.8 15.2551C27.5 15.4551 28 14.8551 28 14.8551C27.9 15.7551 27.1 16.5551 26.6 16.7551C26.4 23.0551 23.8 27.1551 17.7 27.0551C17.2 27.0551 17.8 27.0551 17.3 27.0551C17 27.0551 13.6 26.6551 13 25.2551C15 25.4551 16.4 24.8551 17.1 24.1551C16.3 23.8551 14.7 23.7551 14.5 21.3551C14.8 21.5551 15 21.6551 15.6 21.5551C14.5 20.7551 13.3 20.0551 13.4 18.0551C13.7 18.3551 14.3 18.5551 14.6 18.4551C14 18.2551 12.8 15.3551 13.8 13.8551C15.4 15.5551 17.1 17.2551 20.1 17.3551C20.3 15.2551 21.1 13.8551 22.7 13.1551Z" fill="#444444"/>
</svg>

<svg width="40" height="40" viewBox="0 0 40 40" fill="none" xmlns="http://www.w3.org/2000/svg"><circle cx="20" cy="20" r="20" fill="#fff" fill-opacity=".3"/><path d="M22.7 13.2c1.5-.5 2.6.3 3.2 1l1.7-.5a2 2 0 0 1-.8 1.6c.7.2 1.2-.4 1.2-.4-.1.9-.9 1.7-1.4 1.9-.2 6.3-2.8 10.4-8.9 10.3h-.4c-.3 0-3.7-.4-4.3-1.8 2 .2 3.4-.4 4.1-1.1-.8-.3-2.4-.4-2.6-2.8.3.2.5.3 1.1.2-1.1-.8-2.3-1.5-2.2-3.5.3.3.9.5 1.2.4-.6-.2-1.8-3.1-.8-4.6 1.6 1.7 3.3 3.4 6.3 3.5.2-2.1 1-3.5 2.6-4.2Z" fill="#444"/></svg>
